img/Index/Мороженое.svg

<svg width="49" height="49" viewBox="0 0 49 49" fill="none" xmlns="http://www.w3.org/2000/svg">
<circle cx="24.5" cy="24.5" r="23.5" stroke="#323232" stroke-width="2"/>
<path d="M24 8C22.042 8.00227 20.1526 8.72169 18.689 10.0223C17.2254 11.3229 16.2889 13.1146 16.0565 15.0588H16V30.9459H32V15.0588H31.9435C31.7111 13.1146 30.7746 11.3229 29.311 10.0223C27.8474 8.72169 25.958 8.00227 24 8ZM30.1176 29.0635H17.8824V20.3859C18.0569 20.5964 18.2801 20.7612 18.5326 20.8662C18.7851 20.9711 19.0594 21.013 19.3318 20.9882C20.5459 20.9882 21.3365 20.3106 21.3365 19.4541V18.6353C21.3242 18.5223 21.3359 18.408 21.3708 18.2998C21.4057 18.1917 21.4629 18.0921 21.5388 18.0075C21.6147 17.9229 21.7076 17.8553 21.8114 17.809C21.9152 17.7627 22.0275 17.7387 22.1412 17.7387C22.2548 17.7387 22.3672 17.7627 22.471 17.809C22.5748 17.8553 22.6676 17.9229 22.7435 18.0075C22.8195 18.0921 22.8767 18.1917 22.9116 18.2998C22.9464 18.408 22.9581 18.5223 22.9459 18.6353V21.7318C22.949 21.9809 23.0049 22.2266 23.1101 22.4525C23.2152 22.6784 23.3671 22.8794 23.5557 23.0422C23.7443 23.205 23.9654 23.326 24.2042 23.397C24.443 23.468 24.6942 23.4875 24.9412 23.4541C25.1822 23.4885 25.4278 23.4721 25.6622 23.4062C25.8966 23.3402 26.1146 23.2261 26.3024 23.0711C26.4902 22.9161 26.6436 22.7236 26.7528 22.5059C26.8619 22.2883 26.9245 22.0503 26.9365 21.8071V19.7271C26.9213 19.5516 26.9428 19.375 26.9996 19.2083C27.0563 19.0417 27.1471 18.8886 27.2661 18.7589C27.3851 18.6291 27.5298 18.5255 27.691 18.4547C27.8521 18.3838 28.0263 18.3472 28.2024 18.3472C28.3784 18.3472 28.5526 18.3838 28.7137 18.4547C28.8749 18.5255 29.0196 18.6291 29.1386 18.7589C29.2576 18.8886 29.3484 19.0417 29.4052 19.2083C29.4619 19.375 29.4834 19.5516 29.4682 19.7271C29.4651 19.7552 29.4651 19.7836 29.4682 19.8118C29.492 19.994 29.5626 20.1669 29.6731 20.3137C29.7836 20.4605 29.9303 20.5762 30.0988 20.6494V29.12L30.1176 29.0635Z" fill="#323232"/>
<path d="M22.5882 38.5882C22.5882 38.9627 22.737 39.3217 23.0017 39.5865C23.2665 39.8513 23.6256 40 24 40C24.3744 40 24.7335 39.8513 24.9983 39.5865C25.263 39.3217 25.4118 38.9627 25.4118 38.5882V31.8871H22.5882V38.5882Z" fill="#323232"/>
</svg>

<svg width="49" height="49" fill="none" xmlns="http://www.w3.org/2000/svg"><circle cx="24.5" cy="24.5" r="23.5" stroke="#323232" stroke-width="2"/><path d="M24 8a8.01 8.01 0 00-7.944 7.059H16v15.887h16V15.059h-.056A8.01 8.01 0 0024 8zm6.118 21.064H17.882v-8.678a1.685 1.685 0 001.45.602c1.214 0 2.005-.677 2.005-1.534v-.819a.808.808 0 011.407-.628.81.81 0 01.202.628v3.097a1.76 1.76 0 001.995 1.722 1.75 1.75 0 001.995-1.647v-2.08a1.269 1.269 0 011.778-1.272 1.268 1.268 0 01.754 1.272.387.387 0 000 .085 1.064 1.064 0 00.63.837v8.471l.02-.056zM22.588 38.588a1.412 1.412 0 002.824 0v-6.7h-2.824v6.7z" fill="#323232"/></svg>
